world_stage/static/flags/rect/vnm.svg

<svg height="1066.6667" viewBox="0 0 1600 1066.6667" width="1600" xmlns="http://www.w3.org/2000/svg"><path d="m0 0h1200v800h-1200z" fill="#da251d" transform="matrix(1.3333333 0 0 -1.3333333 0 1066.6667)"/><g fill="#ff0"><path d="m0 0-55.623-171.19 114.127-37.082" transform="matrix(1.3333333 0 0 -1.3333333 800 292)"/><path d="m0 0 55.623-171.19-114.127-37.082" transform="matrix(1.3333333 0 0 -1.3333333 800 292)"/><path d="m0 0h-180v-120" transform="matrix(1.3333333 0 0 -1.3333333 1028.2539 457.836)"/><path d="m0 0-145.623-105.802-70.535 97.083" transform="matrix(1.3333333 0 0 -1.3333333 1028.2539 457.836)"/><path d="m0 0-55.623 171.19-114.127-37.082" transform="matrix(1.3333333 0 0 -1.3333333 941.06907 726.164)"/><path d="m0 0-145.624 105.802 70.535 97.081" transform="matrix(1.3333333 0 0 -1.3333333 941.06907 726.164)"/><path d="m0 0h180v-120" transform="matrix(1.3333333 0 0 -1.3333333 571.7468 457.836)"/><path d="m0 0 145.623-105.802 70.534 97.083" transform="matrix(1.3333333 0 0 -1.3333333 571.7468 457.836)"/><g transform="matrix(1.3333333 0 0 -1.3333333 658.9316 726.164)"><path d="m0 0 55.623 171.19 114.127-37.082"/><path d="m0 0 145.623 105.802-70.534 97.081"/></g></g></svg>

<?xml version="1.0" encoding="UTF-8" standalone="no"?>
<!-- Created with Inkscape (http://www.inkscape.org/) -->

<svg
   version="1.1"
   id="svg1"
   width="1600"
   height="1066.6667"
   viewBox="0 0 1600 1066.6667"
   sodipodi:docname="vn.ai"
   xmlns:inkscape="http://www.inkscape.org/namespaces/inkscape"
   xmlns:sodipodi="http://sodipodi.sourceforge.net/DTD/sodipodi-0.dtd"
   xmlns="http://www.w3.org/2000/svg"
   xmlns:svg="http://www.w3.org/2000/svg">
  <defs
     id="defs1" />
  <sodipodi:namedview
     id="namedview1"
     pagecolor="#ffffff"
     bordercolor="#000000"
     borderopacity="0.25"
     inkscape:showpageshadow="2"
     inkscape:pageopacity="0.0"
     inkscape:pagecheckerboard="0"
     inkscape:deskcolor="#d1d1d1">
    <inkscape:page
       x="0"
       y="0"
       inkscape:label="1"
       id="page1"
       width="1600"
       height="1066.6667"
       margin="0"
       bleed="0" />
  </sodipodi:namedview>
  <g
     id="layer-MC0"
     inkscape:groupmode="layer"
     inkscape:label="Layer 1">
    <path
       id="path1"
       d="M 0,0 H 1200 V 800 H 0 Z"
       style="fill:#da251d;fill-opacity:1;fill-rule:nonzero;stroke:none"
       transform="matrix(1.3333333,0,0,-1.3333333,0,1066.6667)" />
    <path
       id="path2"
       d="M 0,0 -55.623,-171.19 58.504,-208.272"
       style="fill:#ffff00;fill-opacity:1;fill-rule:nonzero;stroke:none"
       transform="matrix(1.3333333,0,0,-1.3333333,800,292)" />
    <path
       id="path3"
       d="M 0,0 55.623,-171.19 -58.504,-208.272"
       style="fill:#ffff00;fill-opacity:1;fill-rule:nonzero;stroke:none"
       transform="matrix(1.3333333,0,0,-1.3333333,800,292)" />
    <path
       id="path4"
       d="M 0,0 H -180 V -120"
       style="fill:#ffff00;fill-opacity:1;fill-rule:nonzero;stroke:none"
       transform="matrix(1.3333333,0,0,-1.3333333,1028.2539,457.836)" />
    <path
       id="path5"
       d="m 0,0 -145.623,-105.802 -70.535,97.083"
       style="fill:#ffff00;fill-opacity:1;fill-rule:nonzero;stroke:none"
       transform="matrix(1.3333333,0,0,-1.3333333,1028.2539,457.836)" />
    <path
       id="path6"
       d="M 0,0 -55.623,171.19 -169.75,134.108"
       style="fill:#ffff00;fill-opacity:1;fill-rule:nonzero;stroke:none"
       transform="matrix(1.3333333,0,0,-1.3333333,941.06907,726.164)" />
    <path
       id="path7"
       d="m 0,0 -145.624,105.802 70.535,97.081"
       style="fill:#ffff00;fill-opacity:1;fill-rule:nonzero;stroke:none"
       transform="matrix(1.3333333,0,0,-1.3333333,941.06907,726.164)" />
    <path
       id="path8"
       d="M 0,0 H 180 V -120"
       style="fill:#ffff00;fill-opacity:1;fill-rule:nonzero;stroke:none"
       transform="matrix(1.3333333,0,0,-1.3333333,571.7468,457.836)" />
    <path
       id="path9"
       d="m 0,0 145.623,-105.802 70.534,97.083"
       style="fill:#ffff00;fill-opacity:1;fill-rule:nonzero;stroke:none"
       transform="matrix(1.3333333,0,0,-1.3333333,571.7468,457.836)" />
    <path
       id="path10"
       d="M 0,0 55.623,171.19 169.75,134.108"
       style="fill:#ffff00;fill-opacity:1;fill-rule:nonzero;stroke:none"
       transform="matrix(1.3333333,0,0,-1.3333333,658.9316,726.164)" />
    <path
       id="path11"
       d="M 0,0 145.623,105.802 75.089,202.883"
       style="fill:#ffff00;fill-opacity:1;fill-rule:nonzero;stroke:none"
       transform="matrix(1.3333333,0,0,-1.3333333,658.9316,726.164)" />
  </g>
</svg>
